web/ui/src/components/theme/workflow/svgs/group.svg

<svg height="16" viewBox="0 0 16 16" width="16" xmlns="http://www.w3.org/2000/svg"><g fill="none"><path d="m0 0h16v16h-16z" fill="#000" opacity="0"/><path d="m2.1109375 4.8078125 5.9046875 3.0046875 5.9046875-3.0046875-5.9046875-2.9zm.828125 4.6625-1.24375-.621875c-.4140625-.2078125-.621875-.51875-.621875-.9328125s.2078125-.725.621875-.9328125l1.24375-.621875-1.24375-.621875c-.51875-.2078125-.725-.828125-.51875-1.346875.103125-.2078125.3109375-.4140625.4140625-.4140625l5.9078125-2.9c.3109375-.103125.621875-.103125.9328125 0l5.9046875 2.9c.5171875.2078125.725.828125.4140625 1.346875-.103125.2078125-.3109375.4140625-.4140625.4140625l-1.24375.621875 1.1390625.51875c.5171875.2078125.725.5171875.725 1.0359375 0 .4140625-.2078125.828125-.725 1.0359375l-1.1390625.51875 1.1390625.51875c.5171875.2078125.725.5171875.725 1.0359375 0 .4140625-.2078125.828125-.725 1.0359375l-5.6984375 2.796875c-.103125.103125-.3109375.103125-.51875.103125s-.3109375 0-.51875-.103125l-5.903125-2.9015625c-.4140625-.2078125-.51875-.51875-.51875-.9328125s.2078125-.725.621875-.9328125zm1.140625.621875-1.96875.9328125 5.9046875 3.003125 5.9046875-2.9-1.96875-.9328125-3.4171875 1.6578125c-.103125.103125-.3109375.103125-.51875.103125s-.3109375 0-.51875-.103125zm7.8734375-3.1078125-3.41875 1.65625c-.3109375.103125-.621875.103125-.9328125 0l-3.521875-1.65625-1.96875.9328125 5.9046875 3.003125 5.9046875-3.0046875z" fill="#526579"/></g></svg>

<?xml version="1.0" encoding="UTF-8"?>
<svg width="16px" height="16px" viewBox="0 0 16 16" version="1.1" xmlns="http://www.w3.org/2000/svg" xmlns:xlink="http://www.w3.org/1999/xlink">
    <title>科研项目</title>
    <g id="页面-1" stroke="none" stroke-width="1" fill="none" fill-rule="evenodd">
        <g id="建木CI-项目详情页（流程/管道图）" transform="translate(-285.000000, -24.000000)" fill-rule="nonzero">
            <g id="编组" transform="translate(70.000000, 22.000000)">
                <g id="科研项目" transform="translate(215.000000, 2.000000)">
                    <rect id="矩形" fill="#000000" opacity="0" x="0" y="0" width="16" height="16"></rect>
                    <path d="M2.1109375,4.8078125 L8.015625,7.8125 L13.9203125,4.8078125 L8.015625,1.9078125 L2.1109375,4.8078125 Z M2.9390625,9.4703125 L1.6953125,8.8484375 C1.28125,8.640625 1.0734375,8.3296875 1.0734375,7.915625 C1.0734375,7.5015625 1.28125,7.190625 1.6953125,6.9828125 L2.9390625,6.3609375 L1.6953125,5.7390625 C1.1765625,5.53125 0.9703125,4.9109375 1.1765625,4.3921875 C1.2796875,4.184375 1.4875,3.978125 1.590625,3.978125 L7.4984375,1.078125 C7.809375,0.975 8.1203125,0.975 8.43125,1.078125 L14.3359375,3.978125 C14.853125,4.1859375 15.0609375,4.80625 14.75,5.325 C14.646875,5.5328125 14.4390625,5.7390625 14.3359375,5.7390625 L13.0921875,6.3609375 L14.23125,6.8796875 C14.7484375,7.0875 14.95625,7.396875 14.95625,7.915625 C14.95625,8.3296875 14.7484375,8.74375 14.23125,8.9515625 L13.0921875,9.4703125 L14.23125,9.9890625 C14.7484375,10.196875 14.95625,10.50625 14.95625,11.025 C14.95625,11.4390625 14.7484375,11.853125 14.23125,12.0609375 L8.5328125,14.8578125 C8.4296875,14.9609375 8.221875,14.9609375 8.0140625,14.9609375 C7.80625,14.9609375 7.703125,14.9609375 7.4953125,14.8578125 L1.5921875,11.95625 C1.178125,11.7484375 1.0734375,11.4375 1.0734375,11.0234375 C1.0734375,10.609375 1.28125,10.2984375 1.6953125,10.090625 L2.9390625,9.4703125 Z M4.0796875,10.0921875 L2.1109375,11.025 L8.015625,14.028125 L13.9203125,11.128125 L11.9515625,10.1953125 L8.534375,11.853125 C8.43125,11.95625 8.2234375,11.95625 8.015625,11.95625 C7.8078125,11.95625 7.7046875,11.95625 7.496875,11.853125 L4.0796875,10.0921875 L4.0796875,10.0921875 Z M11.953125,6.984375 L8.534375,8.640625 C8.2234375,8.74375 7.9125,8.74375 7.6015625,8.640625 L4.0796875,6.984375 L2.1109375,7.9171875 L8.015625,10.9203125 L13.9203125,7.915625 L11.953125,6.984375 Z" id="形状" fill="#526579"></path>
                </g>
            </g>
        </g>
    </g>
</svg>
